X: 1
T:Anchors Aweigh
M:C
L:1/8
Q:80
C:PRC Arch Ott, USN ret.
S:March
K:HP
|: {g}G4{d}B2{Gdc}d2|
{gef}e3B{gef}e4|
{gf}g4a2d2|  !
{gf}g4-g4|1
{gef}e4g2{ef}e2|
{Gdc}d2e2{g}f2{gf}g2|  !
c2{g}e2{ag}a2{f}g2|
{fg}f2d2{gBd}B2{G}A2:|2
{ef}e4{gf}g2{ef}e2|  !
{Gdc}d2e2{g}f2g2|
d3/2{g}d/2{g}cda3/2d/2{g}cd|
{gf}g4-g4:|  !
